src/icons/brand/glyph/GitHubIcon.svg

<svg width="24" height="24" viewBox="0 0 24 24" fill="none" xmlns="http://www.w3.org/2000/svg">
<path d="M12 1.27222C5.9225 1.27222 1 6.19747 1 12.2722C1 17.1333 4.1515 21.2555 8.52125 22.7085C9.07125 22.812 9.27292 22.472 9.27292 22.1795C9.27292 21.9183 9.26375 21.2262 9.25917 20.3095C6.19935 20.9732 5.554 18.8337 5.554 18.8337C5.0535 17.5641 4.33025 17.225 4.33025 17.225C3.33383 16.543 4.40725 16.5567 4.40725 16.5567C5.51183 16.6337 6.09208 17.6897 6.09208 17.6897C7.0729 19.3718 8.667 18.886 9.29583 18.6045C9.39483 17.8932 9.67808 17.4083 9.9925 17.1333C7.54958 16.8583 4.982 15.9123 4.982 11.6975C4.982 10.4966 5.40825 9.51579 6.11408 8.74579C5.99033 8.46804 5.61908 7.34972 6.21033 5.83447C6.21033 5.83447 7.13158 5.53929 9.23533 6.96197C10.1153 6.71722 11.0503 6.59622 11.9853 6.59072C12.9203 6.59622 13.8553 6.71722 14.7353 6.96197C16.8253 5.53929 17.7466 5.83447 17.7466 5.83447C18.3378 7.34972 17.9666 8.46804 17.8566 8.74579C18.5578 9.51579 18.9841 10.4966 18.9841 11.6975C18.9841 15.9233 16.4128 16.8537 13.9653 17.1241C14.3503 17.4541 14.7078 18.1288 14.7078 19.1591C14.7078 20.6313 14.6941 21.8138 14.6941 22.1713C14.6941 22.4601 14.8866 22.8038 15.4503 22.6938C19.8512 21.251 23 17.126 23 12.2722C23 6.19749 18.0748 1.27224 12 1.27224V1.27222Z" fill="currentColor"/>
</svg>

<svg xmlns="http://www.w3.org/2000/svg" width="24" height="24" fill="currentColor" viewBox="0 0 24 24">
  <path d="M12 1.272c-6.077 0-11 4.925-11 11 0 4.861 3.152 8.984 7.521 10.437.55.103.752-.237.752-.53 0-.26-.01-.953-.014-1.87-3.06.664-3.705-1.475-3.705-1.475-.5-1.27-1.224-1.609-1.224-1.609-.996-.682.077-.668.077-.668 1.105.077 1.685 1.133 1.685 1.133.98 1.682 2.575 1.196 3.204.915.099-.712.382-1.197.697-1.472-2.443-.275-5.011-1.22-5.011-5.435 0-1.201.426-2.182 1.132-2.952-.124-.278-.495-1.396.096-2.912 0 0 .922-.295 3.025 1.128.88-.245 1.815-.366 2.75-.371.935.005 1.87.126 2.75.371 2.09-1.423 3.012-1.128 3.012-1.128.59 1.516.22 2.634.11 2.912.7.77 1.127 1.75 1.127 2.951 0 4.226-2.571 5.157-5.019 5.427.385.33.743 1.005.743 2.035 0 1.472-.014 2.655-.014 3.012 0 .29.193.633.756.523A10.962 10.962 0 0 0 23 12.272c0-6.075-4.925-11-11-11Z"/>
</svg>
